assets/img/braze_icons/chart-breakout-square.svg

<svg fill="none" height="24" viewBox="0 0 24 24" width="24" xmlns="http://www.w3.org/2000/svg"><path d="m17.8385 2h-11.67704c-.52713-.00002-.98192-.00003-1.35649.03057-.39534.0323-.78856.10362-1.16694.29641-.56449.28762-1.02343.74656-1.31105 1.31105-.19279.37838-.26411.7716-.29641 1.16694-.0306.37457-.03059.82932-.03057 1.35645v5.72978c0 .4332 0 .6498.08933.8467.07232.1594.21838.3294.3651.4249.1812.118.36815.1465.74206.2034.59646.0909 1.20055.1338 1.80347.1338 3.30568 0 6.29934-1.336 8.47064-3.5h-1.4706c-.5523 0-1-.44771-1-1 0-.55228.4477-1 1-1h4c.5523 0 1 .44772 1 1v4c0 .5523-.4477 1-1 1s-1-.4477-1-1v-1.7022c-2.5402 2.5921-6.08204 4.2022-10.00004 4.2022-.34799 0-.69314-.0128-1.035-.0378-.76202-.0557-1.14303-.0836-1.37283.0191-.21975.0981-.35904.2276-.47298.4396-.11915.2217-.11915.5624-.11915 1.2438v.6738c-.00002.5272-.00003.982.03057 1.3565.0323.3954.10362.7886.29641 1.167.28762.5645.74656 1.0234 1.31105 1.311.37838.1928.7716.2641 1.16694.2964.37457.0306.82933.0306 1.35647.0306h11.67716c.5271 0 .9819 0 1.3564-.0306.3954-.0323.7886-.1036 1.167-.2964.5645-.2876 1.0234-.7465 1.311-1.311.1928-.3784.2641-.7716.2964-1.167.0306-.3745.0306-.8293.0306-1.3564v-11.67716c0-.52714 0-.9819-.0306-1.35647-.0323-.39534-.1036-.78856-.2964-1.16694-.2876-.56449-.7465-1.02343-1.311-1.31105-.3784-.19279-.7716-.26411-1.167-.29641-.3745-.0306-.8293-.03059-1.3565-.03057z" fill="#801ed7"/></svg>

<svg width="24" height="24" viewBox="0 0 24 24" fill="none" xmlns="http://www.w3.org/2000/svg">
<path d="M17.8385 2H6.16146C5.63433 1.99998 5.17954 1.99997 4.80497 2.03057C4.40963 2.06287 4.01641 2.13419 3.63803 2.32698C3.07354 2.6146 2.6146 3.07354 2.32698 3.63803C2.13419 4.01641 2.06287 4.40963 2.03057 4.80497C1.99997 5.17954 1.99998 5.63429 2 6.16142V11.8912C2 12.3244 2 12.541 2.08933 12.7379C2.16165 12.8973 2.30771 13.0673 2.45443 13.1628C2.63563 13.2808 2.82258 13.3093 3.19649 13.3662C3.79295 13.4571 4.39704 13.5 4.99996 13.5C8.30564 13.5 11.2993 12.164 13.4706 10H12C11.4477 10 11 9.55229 11 9C11 8.44772 11.4477 8 12 8H16C16.5523 8 17 8.44772 17 9V13C17 13.5523 16.5523 14 16 14C15.4477 14 15 13.5523 15 13V11.2978C12.4598 13.8899 8.91796 15.5 4.99996 15.5C4.65197 15.5 4.30682 15.4872 3.96496 15.4622C3.20294 15.4065 2.82193 15.3786 2.59213 15.4813C2.37238 15.5794 2.23309 15.7089 2.11915 15.9209C2 16.1426 2 16.4833 2 17.1647V17.8385C1.99998 18.3657 1.99997 18.8205 2.03057 19.195C2.06287 19.5904 2.13419 19.9836 2.32698 20.362C2.6146 20.9265 3.07354 21.3854 3.63803 21.673C4.01641 21.8658 4.40963 21.9371 4.80497 21.9694C5.17954 22 5.6343 22 6.16144 22H17.8386C18.3657 22 18.8205 22 19.195 21.9694C19.5904 21.9371 19.9836 21.8658 20.362 21.673C20.9265 21.3854 21.3854 20.9265 21.673 20.362C21.8658 19.9836 21.9371 19.5904 21.9694 19.195C22 18.8205 22 18.3657 22 17.8386V6.16144C22 5.6343 22 5.17954 21.9694 4.80497C21.9371 4.40963 21.8658 4.01641 21.673 3.63803C21.3854 3.07354 20.9265 2.6146 20.362 2.32698C19.9836 2.13419 19.5904 2.06287 19.195 2.03057C18.8205 1.99997 18.3657 1.99998 17.8385 2Z" fill="#801ED7"/>
</svg>
